actions/scalable/debug-step-instruction.svg

<?xml version="1.0" encoding="UTF-8" standalone="no"?>
<!-- Created with Inkscape (http://www.inkscape.org/) -->

<svg
   xmlns:dc="http://purl.org/dc/elements/1.1/"
   xmlns:cc="http://creativecommons.org/ns#"
   xmlns:rdf="http://www.w3.org/1999/02/22-rdf-syntax-ns#"
   xmlns:svg="http://www.w3.org/2000/svg"
   xmlns="http://www.w3.org/2000/svg"
   xmlns:sodipodi="http://sodipodi.sourceforge.net/DTD/sodipodi-0.dtd"
   xmlns:inkscape="http://www.inkscape.org/namespaces/inkscape"
   width="22"
   height="22"
   id="svg3813"
   version="1.1"
   inkscape:version="0.48+devel r"
   sodipodi:docname="debug-step-instruction.svg">
  <defs
     id="defs3815" />
  <sodipodi:namedview
     id="base"
     pagecolor="#ffffff"
     bordercolor="#666666"
     borderopacity="1.0"
     inkscape:pageopacity="0.0"
     inkscape:pageshadow="2"
     inkscape:zoom="12.954146"
     inkscape:cx="-0.49258332"
     inkscape:cy="10.666262"
     inkscape:document-units="px"
     inkscape:current-layer="layer1"
     showgrid="true"
     fit-margin-top="0"
     fit-margin-left="0"
     fit-margin-right="0"
     fit-margin-bottom="0"
     inkscape:window-width="1366"
     inkscape:window-height="668"
     inkscape:window-x="-2"
     inkscape:window-y="23"
     inkscape:window-maximized="1"
     inkscape:showpageshadow="false">
    <inkscape:grid
       type="xygrid"
       id="grid4109" />
    <sodipodi:guide
       position="2.0000072,19.999993"
       orientation="18,0"
       id="guide4115" />
    <sodipodi:guide
       position="2.0000072,1.9999929"
       orientation="0,18"
       id="guide4117" />
    <sodipodi:guide
       position="20.000007,1.9999929"
       orientation="-18,0"
       id="guide4119" />
    <sodipodi:guide
       position="20.000007,19.999993"
       orientation="0,-18"
       id="guide4121" />
    <sodipodi:guide
       position="3.0000072,18.999993"
       orientation="16,0"
       id="guide4123" />
    <sodipodi:guide
       position="3.0000072,2.9999929"
       orientation="0,16"
       id="guide4125" />
    <sodipodi:guide
       position="19.000007,2.9999929"
       orientation="-16,0"
       id="guide4127" />
    <sodipodi:guide
       position="19.000007,18.999993"
       orientation="0,-16"
       id="guide4129" />
  </sodipodi:namedview>
  <metadata
     id="metadata3818">
    <rdf:RDF>
      <cc:Work
         rdf:about="">
        <dc:format>image/svg+xml</dc:format>
        <dc:type
           rdf:resource="http://purl.org/dc/dcmitype/StillImage" />
        <dc:title />
      </cc:Work>
    </rdf:RDF>
  </metadata>
  <g
     inkscape:label="Capa 1"
     inkscape:groupmode="layer"
     id="layer1"
     transform="translate(-378.85714,-540.07647)">
    <path
       style="font-style:normal;font-variant:normal;font-weight:normal;font-stretch:normal;font-size:medium;line-height:125%;font-family:oxygen;-inkscape-font-specification:oxygen;letter-spacing:0px;word-spacing:0px;fill:#666666;fill-opacity:1;stroke:none;stroke-width:1px;stroke-linecap:butt;stroke-linejoin:miter;stroke-opacity:1"
       d="M 3 3 L 3 7 L 3 19 L 4 19 L 19 19 L 19 18 L 19 9 L 18 9 L 18 18 L 4 18 L 4 7 L 13 7 L 13 5 L 13 3 L 3 3 z M 9.4277344 9 C 8.3616444 9 7.9140625 9.3522463 7.9140625 10.253906 L 7.9140625 11.476562 C 7.9140625 12.033473 7.8935575 12.677734 7.3046875 12.677734 L 7 12.677734 L 7 13.322266 L 7.3046875 13.322266 C 7.8935775 13.322266 7.9140625 13.966527 7.9140625 14.523438 L 7.9140625 15.746094 C 7.9140625 16.647754 8.3616444 17 9.4277344 17 L 9.4277344 16.408203 C 8.7170144 16.408203 8.7070312 16.169044 8.7070312 15.302734 L 8.7070312 14.294922 C 8.7070312 13.879462 8.583415 13.260256 7.984375 13.003906 C 8.583415 12.747556 8.7070312 12.130314 8.7070312 11.714844 L 8.7070312 10.697266 C 8.7070312 9.8309556 8.7170344 9.5917969 9.4277344 9.5917969 L 9.4277344 9 z M 11 9 C 10.446 9 10 9.446 10 10 C 10 10.554 10.446 11 11 11 C 11.554 11 12 10.554 12 10 C 12 9.446 11.554 9 11 9 z M 12.564453 9 L 12.564453 9.5917969 C 13.275183 9.5917969 13.292969 9.8309556 13.292969 10.697266 L 13.292969 11.714844 C 13.292969 12.130314 13.416575 12.747556 14.015625 13.003906 C 13.416575 13.260256 13.292969 13.879462 13.292969 14.294922 L 13.292969 15.302734 C 13.292969 16.169044 13.275273 16.408203 12.564453 16.408203 L 12.564453 17 C 13.630553 17 14.085928 16.647754 14.085938 15.746094 L 14.085938 14.523438 C 14.085938 13.966527 14.126338 13.322266 14.705078 13.322266 L 15 13.322266 L 15 12.677734 L 14.705078 12.677734 C 14.126338 12.677734 14.085928 12.033473 14.085938 11.476562 L 14.085938 10.253906 C 14.085938 9.3522463 13.630553 9 12.564453 9 z M 10 12 L 10 16 L 12 16 L 12 12 L 10 12 z "
       transform="translate(378.85714,540.07647)"
       id="path4136-3" />
    <path
       style="fill:#ff6600;fill-rule:evenodd;stroke:none;stroke-width:1px;stroke-linecap:butt;stroke-linejoin:miter;stroke-opacity:1"
       d="m 393.85715,543.07647 2,3 1.99999,-3 z"
       id="path4133-6"
       inkscape:connector-curvature="0"
       sodipodi:nodetypes="cccc" />
  </g>
</svg>

<svg height="22" width="22" xmlns="http://www.w3.org/2000/svg" xmlns:sodipodi="http://sodipodi.sourceforge.net/DTD/sodipodi-0.dtd" xmlns:inkscape="http://www.inkscape.org/namespaces/inkscape">
 <g transform="matrix(1 0 0 1 -378.86 -540.08)">
  <path d="m3 3v4 12h1 15v-1-9h-1v9h-14v-11h9v-2-2h-10zm6.4277 6c-1.0661 0-1.5136 0.3522-1.5136 1.254v1.223c0 0.556-0.0205 1.201-0.6094 1.201h-0.3047v0.644h0.3047c0.5889 0 0.6094 0.645 0.6094 1.201v1.223c0 0.902 0.4475 1.254 1.5136 1.254v-0.592c-0.7107 0-0.7207-0.239-0.7207-1.105v-1.008c0-0.416-0.1236-1.035-0.7226-1.291 0.599-0.256 0.7226-0.874 0.7226-1.289v-1.018c0-0.866 0.01-1.1052 0.7207-1.1052v-0.5918zm1.5723 0c-0.554 0-1 0.446-1 1s0.446 1 1 1 1-0.446 1-1-0.446-1-1-1zm1.564 0v0.5918c0.711 0 0.729 0.2392 0.729 1.1052v1.018c0 0.415 0.124 1.033 0.723 1.289-0.599 0.256-0.723 0.875-0.723 1.291v1.008c0 0.866-0.018 1.105-0.729 1.105v0.592c1.067 0 1.522-0.352 1.522-1.254v-1.223c0-0.556 0.04-1.201 0.619-1.201h0.295v-0.644h-0.295c-0.579 0-0.619-0.645-0.619-1.201v-1.223c0-0.9018-0.455-1.254-1.522-1.254zm-2.564 3v4h2v-4h-2z" fill="#4d4d4d" transform="matrix(1 0 0 1 378.86 540.08)"/>
  <path d="m393.86 543.08 2 3 2-3z" fill="#f60" fill-rule="evenodd"/>
 </g>
</svg>
